Newaita-dark/apps/256/multimedia-photo-viewer.svg

<?xml version="1.0" encoding="UTF-8"?>
<svg xmlns="http://www.w3.org/2000/svg" xmlns:xlink="http://www.w3.org/1999/xlink" width="256pt" height="256pt" viewBox="0 0 256 256" version="1.1">
<defs>
<linearGradient id="linear0" gradientUnits="userSpaceOnUse" x1="254" y1="233.5" x2="254" y2="254.666672" gradientTransform="matrix(0.500048,0,0,0.500048,-0.0000305205,107.510266)">
<stop offset="0" style="stop-color:rgb(0%,0%,0%);stop-opacity:0.27451;"/>
<stop offset="1" style="stop-color:rgb(0%,0%,0%);stop-opacity:0;"/>
</linearGradient>
<radialGradient id="radial0" gradientUnits="userSpaceOnUse" cx="450.908936" cy="189.579361" fx="450.908936" fy="189.579361" r="21.166656" gradientTransform="matrix(0.00000139336,-0.62506,-1.125108,-0.000000812309,427.629524,508.762645)">
<stop offset="0" style="stop-color:rgb(0%,0%,0%);stop-opacity:0.313725;"/>
<stop offset="0.222222" style="stop-color:rgb(0%,0%,0%);stop-opacity:0.27451;"/>
<stop offset="1" style="stop-color:rgb(0%,0%,0%);stop-opacity:0;"/>
</radialGradient>
<radialGradient id="radial1" gradientUnits="userSpaceOnUse" cx="450.908936" cy="189.579361" fx="450.908936" fy="189.579361" r="21.166656" gradientTransform="matrix(-0.00000139336,0.62506,1.125108,0.000000812309,-173.605291,-60.219846)">
<stop offset="0" style="stop-color:rgb(0%,0%,0%);stop-opacity:0.313725;"/>
<stop offset="0.222222" style="stop-color:rgb(0%,0%,0%);stop-opacity:0.27451;"/>
<stop offset="1" style="stop-color:rgb(0%,0%,0%);stop-opacity:0;"/>
</radialGradient>
<radialGradient id="radial2" gradientUnits="userSpaceOnUse" cx="450.908936" cy="189.579361" fx="450.908936" fy="189.579361" r="21.166656" gradientTransform="matrix(-0.00000139336,-0.62506,1.125108,-0.000000812309,-173.605291,508.762645)">
<stop offset="0" style="stop-color:rgb(0%,0%,0%);stop-opacity:0.313725;"/>
<stop offset="0.222222" style="stop-color:rgb(0%,0%,0%);stop-opacity:0.27451;"/>
<stop offset="1" style="stop-color:rgb(0%,0%,0%);stop-opacity:0;"/>
</radialGradient>
<radialGradient id="radial3" gradientUnits="userSpaceOnUse" cx="450.908936" cy="189.579361" fx="450.908936" fy="189.579361" r="21.166656" gradientTransform="matrix(0.00000139336,0.62506,-1.125108,0.000000812309,427.629509,-60.21985)">
<stop offset="0" style="stop-color:rgb(0%,0%,0%);stop-opacity:0.313725;"/>
<stop offset="0.222222" style="stop-color:rgb(0%,0%,0%);stop-opacity:0.27451;"/>
<stop offset="1" style="stop-color:rgb(0%,0%,0%);stop-opacity:0;"/>
</radialGradient>
<linearGradient id="linear1" gradientUnits="userSpaceOnUse" x1="305.954559" y1="-31.87709" x2="305.954559" y2="-135.329163" gradientTransform="matrix(0.602797,0,0,1.739297,-46.832105,269.130786)">
<stop offset="0" style="stop-color:rgb(25.882353%,64.705882%,96.078431%);stop-opacity:1;"/>
<stop offset="1" style="stop-color:rgb(62.352941%,65.882353%,85.490196%);stop-opacity:1;"/>
</linearGradient>
<linearGradient id="linear2" gradientUnits="userSpaceOnUse" x1="960" y1="1615.118164" x2="960" y2="1015.118103" gradientTransform="matrix(0.132304,0,0,0.132304,0,10.584469)">
<stop offset="0" style="stop-color:rgb(21.568627%,27.843137%,30.980392%);stop-opacity:1;"/>
<stop offset="1" style="stop-color:rgb(27.058824%,35.294118%,39.215686%);stop-opacity:1;"/>
</linearGradient>
<linearGradient id="linear3" gradientUnits="userSpaceOnUse" x1="1400" y1="695.118103" x2="1400" y2="455.118103" gradientTransform="matrix(0.132304,0,0,0.132304,0,0)">
<stop offset="0" style="stop-color:rgb(99.215686%,84.705882%,20.784314%);stop-opacity:1;"/>
<stop offset="1" style="stop-color:rgb(100%,94.509804%,46.27451%);stop-opacity:1;"/>
</linearGradient>
</defs>
<g id="surface1">
<path style=" stroke:none;fill-rule:nonzero;fill:url(#linear0);" d="M 37.046875 224.269531 L 216.980469 224.269531 L 216.980469 234.5625 L 37.046875 234.5625 Z M 37.046875 224.269531 "/>
<path style=" stroke:none;fill-rule:nonzero;fill:url(#radial0);" d="M 216.980469 224.269531 L 238.148438 224.269531 L 238.148438 213.6875 L 216.980469 213.6875 Z M 216.980469 224.269531 "/>
<path style=" stroke:none;fill-rule:nonzero;fill:url(#radial1);" d="M 37.046875 224.269531 L 15.875 224.269531 L 15.875 234.855469 L 37.046875 234.855469 Z M 37.046875 224.269531 "/>
<path style=" stroke:none;fill-rule:nonzero;fill:url(#radial2);" d="M 37.046875 224.269531 L 15.875 224.269531 L 15.875 213.6875 L 37.046875 213.6875 Z M 37.046875 224.269531 "/>
<path style=" stroke:none;fill-rule:nonzero;fill:url(#radial3);" d="M 216.980469 224.269531 L 238.148438 224.269531 L 238.148438 234.855469 L 216.980469 234.855469 Z M 216.980469 224.269531 "/>
<path style=" stroke:none;fill-rule:nonzero;fill:url(#linear1);" d="M 26.460938 33.753906 L 227.5625 33.753906 C 233.410156 33.753906 238.148438 38.492188 238.148438 44.335938 L 238.148438 213.6875 C 238.148438 219.53125 233.410156 224.269531 227.5625 224.269531 L 26.460938 224.269531 C 20.617188 224.269531 15.875 219.53125 15.875 213.6875 L 15.875 44.335938 C 15.875 38.492188 20.617188 33.753906 26.460938 33.753906 Z M 26.460938 33.753906 "/>
<path style=" stroke:none;fill-rule:nonzero;fill:url(#linear2);" d="M 15.875 166.058594 L 15.875 213.6875 C 15.875 219.550781 20.597656 224.273438 26.460938 224.273438 L 227.5625 224.273438 C 233.425781 224.273438 238.148438 219.550781 238.148438 213.6875 L 238.148438 166.058594 C 194.144531 191.808594 179.863281 163.117188 161.917969 158.417969 C 142.714844 153.386719 139.046875 176.238281 119.667969 173.90625 C 100.289062 171.578125 75.605469 142.378906 57.753906 144.210938 C 39.902344 146.039062 30.917969 156.574219 15.875 166.058594 Z M 15.875 166.058594 "/>
<path style=" stroke:none;fill-rule:nonzero;fill:url(#linear3);" d="M 185.226562 60.214844 C 182.332031 60.214844 179.621094 60.980469 177.289062 62.324219 C 182.039062 65.0625 185.226562 70.191406 185.226562 76.089844 C 185.226562 81.988281 182.039062 87.117188 177.289062 89.855469 C 179.621094 91.199219 182.332031 91.96875 185.226562 91.96875 C 194.023438 91.96875 201.101562 84.886719 201.101562 76.089844 C 201.101562 67.292969 194.023438 60.214844 185.226562 60.214844 Z M 185.226562 60.214844 "/>
<path style=" stroke:none;fill-rule:nonzero;fill:rgb(0%,0%,0%);fill-opacity:0.470588;" d="M 42.335938 49.628906 C 36.472656 49.628906 31.753906 54.351562 31.753906 60.214844 L 31.753906 187.226562 C 31.753906 193.089844 36.472656 197.808594 42.335938 197.808594 L 211.6875 197.808594 C 217.550781 197.808594 222.269531 193.089844 222.269531 187.226562 L 222.269531 60.214844 C 222.269531 54.351562 217.550781 49.628906 211.6875 49.628906 Z M 42.335938 50.953125 L 211.6875 50.953125 C 216.816406 50.953125 220.949219 55.082031 220.949219 60.214844 L 220.949219 187.226562 C 220.949219 192.355469 216.816406 196.488281 211.6875 196.488281 L 42.335938 196.488281 C 37.207031 196.488281 33.074219 192.355469 33.074219 187.226562 L 33.074219 60.214844 C 33.074219 55.082031 37.207031 50.953125 42.335938 50.953125 Z M 42.335938 50.953125 "/>
<path style=" stroke:none;fill-rule:nonzero;fill:rgb(84.313726%,84.313726%,84.313726%);fill-opacity:0.588235;" d="M 42.335938 50.953125 C 37.207031 50.953125 33.074219 55.082031 33.074219 60.214844 L 33.074219 187.226562 C 33.074219 192.355469 37.207031 196.488281 42.335938 196.488281 L 211.6875 196.488281 C 216.816406 196.488281 220.949219 192.355469 220.949219 187.226562 L 220.949219 60.214844 C 220.949219 55.082031 216.816406 50.953125 211.6875 50.953125 Z M 42.335938 52.277344 L 211.6875 52.277344 C 216.085938 52.277344 219.625 55.816406 219.625 60.214844 L 219.625 187.226562 C 219.625 191.625 216.085938 195.164062 211.6875 195.164062 L 42.335938 195.164062 C 37.941406 195.164062 34.398438 191.625 34.398438 187.226562 L 34.398438 60.214844 C 34.398438 55.816406 37.941406 52.277344 42.335938 52.277344 Z M 42.335938 52.277344 "/>
<path style=" stroke:none;fill-rule:nonzero;fill:rgb(0%,0%,0%);fill-opacity:0.196078;" d="M 42.335938 52.277344 L 211.6875 52.277344 C 216.070312 52.277344 219.625 55.691406 219.625 59.90625 L 219.625 187.53125 C 219.625 191.746094 216.070312 195.164062 211.6875 195.164062 L 42.335938 195.164062 C 37.953125 195.164062 34.398438 191.746094 34.398438 187.53125 L 34.398438 59.90625 C 34.398438 55.691406 37.953125 52.277344 42.335938 52.277344 Z M 42.335938 52.277344 "/>
<path style=" stroke:none;fill-rule:nonzero;fill:rgb(89.019608%,89.019608%,89.019608%);fill-opacity:0.117647;" d="M 42.335938 53.597656 C 38.671875 53.597656 35.722656 56.550781 35.722656 60.214844 L 35.722656 104.550781 C 78.027344 86.621094 129.894531 76.089844 186.0625 76.089844 C 196.984375 76.089844 207.742188 76.492188 218.300781 77.265625 L 218.300781 60.214844 C 218.300781 56.550781 215.351562 53.597656 211.6875 53.597656 Z M 42.335938 53.597656 "/>
<path style=" stroke:none;fill-rule:nonzero;fill:rgb(100%,100%,100%);fill-opacity:0.392157;" d="M 26.460938 33.753906 C 20.597656 33.753906 15.875 38.472656 15.875 44.335938 L 15.875 48.285156 C 15.875 42.417969 20.597656 37.699219 26.460938 37.699219 L 227.5625 37.699219 C 233.425781 37.699219 238.148438 42.417969 238.148438 48.285156 L 238.148438 44.335938 C 238.148438 38.472656 233.425781 33.753906 227.5625 33.753906 Z M 26.460938 33.753906 "/>
<path style=" stroke:none;fill-rule:nonzero;fill:rgb(0%,0%,0%);fill-opacity:0.235294;" d="M 26.460938 224.277344 C 20.597656 224.277344 15.875 219.558594 15.875 213.695312 L 15.875 209.746094 C 15.875 215.613281 20.597656 220.332031 26.460938 220.332031 L 227.5625 220.332031 C 233.425781 220.332031 238.148438 215.613281 238.148438 209.746094 L 238.148438 213.695312 C 238.148438 219.558594 233.425781 224.277344 227.5625 224.277344 Z M 26.460938 224.277344 "/>
<path style="fill:none;stroke-width:3;stroke-linecap:round;stroke-linejoin:miter;stroke:rgb(12.941177%,12.941177%,12.941177%);stroke-opacity:1;stroke-miterlimit:4;" d="M 52.916822 -147.498634 L 455.081542 -147.498634 C 466.775738 -147.498634 476.251395 -138.022976 476.251395 -126.336592 L 476.251395 212.334192 C 476.251395 224.020576 466.775738 233.496233 455.081542 233.496233 L 52.916822 233.496233 C 41.230438 233.496233 31.746968 224.020576 31.746968 212.334192 L 31.746968 -126.336592 C 31.746968 -138.022976 41.230438 -147.498634 52.916822 -147.498634 Z M 52.916822 -147.498634 " transform="matrix(0.500048,0,0,0.500048,0,107.510266)"/>
</g>
</svg>

<svg xmlns="http://www.w3.org/2000/svg" width="256pt" height="256pt" viewBox="0 0 256 256"><defs><linearGradient id="a" gradientUnits="userSpaceOnUse" x1="254" y1="233.5" x2="254" y2="254.667" gradientTransform="matrix(.50005 0 0 .50005 0 107.51)"><stop offset="0" stop-opacity=".275"/><stop offset="1" stop-opacity="0"/></linearGradient><radialGradient id="b" gradientUnits="userSpaceOnUse" cx="450.909" cy="189.579" fx="450.909" fy="189.579" r="21.167" gradientTransform="matrix(0 -.62506 -1.1251 0 427.63 508.763)"><stop offset="0" stop-opacity=".314"/><stop offset=".222" stop-opacity=".275"/><stop offset="1" stop-opacity="0"/></radialGradient><radialGradient id="c" gradientUnits="userSpaceOnUse" cx="450.909" cy="189.579" fx="450.909" fy="189.579" r="21.167" gradientTransform="matrix(0 .62506 1.1251 0 -173.605 -60.22)"><stop offset="0" stop-opacity=".314"/><stop offset=".222" stop-opacity=".275"/><stop offset="1" stop-opacity="0"/></radialGradient><radialGradient id="d" gradientUnits="userSpaceOnUse" cx="450.909" cy="189.579" fx="450.909" fy="189.579" r="21.167" gradientTransform="matrix(0 -.62506 1.1251 0 -173.605 508.763)"><stop offset="0" stop-opacity=".314"/><stop offset=".222" stop-opacity=".275"/><stop offset="1" stop-opacity="0"/></radialGradient><radialGradient id="e" gradientUnits="userSpaceOnUse" cx="450.909" cy="189.579" fx="450.909" fy="189.579" r="21.167" gradientTransform="matrix(0 .62506 -1.1251 0 427.63 -60.22)"><stop offset="0" stop-opacity=".314"/><stop offset=".222" stop-opacity=".275"/><stop offset="1" stop-opacity="0"/></radialGradient><linearGradient id="f" gradientUnits="userSpaceOnUse" x1="305.955" y1="-31.877" x2="305.955" y2="-135.329" gradientTransform="matrix(.6028 0 0 1.7393 -46.832 269.13)"><stop offset="0" stop-color="#42a5f5"/><stop offset="1" stop-color="#9fa8da"/></linearGradient><linearGradient id="g" gradientUnits="userSpaceOnUse" x1="960" y1="1615.118" x2="960" y2="1015.118" gradientTransform="matrix(.1323 0 0 .1323 0 10.584)"><stop offset="0" stop-color="#37474f"/><stop offset="1" stop-color="#455a64"/></linearGradient><linearGradient id="h" gradientUnits="userSpaceOnUse" x1="1400" y1="695.118" x2="1400" y2="455.118" gradientTransform="scale(.1323)"><stop offset="0" stop-color="#fdd835"/><stop offset="1" stop-color="#fff176"/></linearGradient></defs><path d="M37.047 224.27H216.98v10.292H37.047zm0 0" fill="url(#a)"/><path d="M216.98 224.27h21.168v-10.583H216.98zm0 0" fill="url(#b)"/><path d="M37.047 224.27H15.875v10.585h21.172zm0 0" fill="url(#c)"/><path d="M37.047 224.27H15.875v-10.583h21.172zm0 0" fill="url(#d)"/><path d="M216.98 224.27h21.168v10.585H216.98zm0 0" fill="url(#e)"/><path d="M26.46 33.754h201.102c5.848 0 10.586 4.738 10.586 10.582v169.351c0 5.844-4.738 10.583-10.585 10.583H26.46c-5.844 0-10.586-4.739-10.586-10.583V44.337c0-5.844 4.742-10.582 10.586-10.582zm0 0" fill="url(#f)"/><path d="M15.875 166.059v47.629a10.564 10.564 0 0 0 10.586 10.585h201.101a10.564 10.564 0 0 0 10.586-10.585v-47.63c-44.003 25.75-58.285-2.94-76.23-7.64-19.203-5.031-22.871 17.82-42.25 15.488-19.379-2.328-44.063-31.527-61.914-29.695-17.852 1.828-26.836 12.363-41.879 21.848zm0 0" fill="url(#g)"/><path d="M185.227 60.215c-2.895 0-5.606.765-7.938 2.11a15.846 15.846 0 0 1 7.938 13.765 15.846 15.846 0 0 1-7.938 13.765 15.849 15.849 0 0 0 7.938 2.114 15.84 15.84 0 0 0 15.875-15.88 15.838 15.838 0 0 0-15.875-15.874zm0 0" fill="url(#h)"/><path d="M42.336 49.629a10.561 10.561 0 0 0-10.582 10.586v127.012a10.558 10.558 0 0 0 10.582 10.582h169.351a10.558 10.558 0 0 0 10.583-10.582V60.215a10.561 10.561 0 0 0-10.583-10.586zm0 1.324h169.351a9.242 9.242 0 0 1 9.262 9.262v127.012a9.244 9.244 0 0 1-9.262 9.261H42.337a9.244 9.244 0 0 1-9.262-9.261V60.215a9.242 9.242 0 0 1 9.262-9.262zm0 0" fill-opacity=".471"/><path d="M42.336 50.953a9.242 9.242 0 0 0-9.262 9.262v127.012a9.244 9.244 0 0 0 9.262 9.261h169.351a9.244 9.244 0 0 0 9.262-9.261V60.215a9.242 9.242 0 0 0-9.262-9.262zm0 1.324h169.351a7.919 7.919 0 0 1 7.938 7.938v127.012a7.919 7.919 0 0 1-7.938 7.937H42.337a7.921 7.921 0 0 1-7.938-7.937V60.215a7.921 7.921 0 0 1 7.938-7.938zm0 0" fill="#d7d7d7" fill-opacity=".588"/><path d="M42.336 52.277h169.351c4.383 0 7.938 3.414 7.938 7.63V187.53c0 4.215-3.555 7.633-7.938 7.633H42.337c-4.383 0-7.938-3.418-7.938-7.633V59.906c0-4.215 3.555-7.629 7.938-7.629zm0 0" fill-opacity=".196"/><path d="M42.336 53.598a6.602 6.602 0 0 0-6.613 6.617v44.336c42.304-17.93 94.172-28.461 150.34-28.461 10.921 0 21.68.402 32.238 1.176V60.215a6.602 6.602 0 0 0-6.613-6.617zm0 0" fill="#e3e3e3" fill-opacity=".118"/><path d="M26.46 33.754a10.561 10.561 0 0 0-10.585 10.582v3.95a10.562 10.562 0 0 1 10.586-10.587h201.101a10.562 10.562 0 0 1 10.586 10.586v-3.95a10.561 10.561 0 0 0-10.585-10.581zm0 0" fill="#fff" fill-opacity=".392"/><path d="M26.46 224.277a10.561 10.561 0 0 1-10.585-10.582v-3.949a10.562 10.562 0 0 0 10.586 10.586h201.101a10.562 10.562 0 0 0 10.586-10.586v3.95a10.561 10.561 0 0 1-10.585 10.581zm0 0" fill-opacity=".235"/><path d="M26.461 33.754h201.102c5.847 0 10.586 4.738 10.586 10.582v169.352c0 5.843-4.739 10.582-10.586 10.582H26.46c-5.844 0-10.586-4.739-10.586-10.582V44.336c0-5.844 4.742-10.582 10.586-10.582zm0 0" fill="none" stroke-width="1.50015" stroke-linecap="round" stroke="#212121"/></svg>
